svg/fluentui-system-icons/ic_fluent_multiplier_1x_48_filled.svg

<svg width="48" height="48" viewBox="0 0 48 48" fill="none" xmlns="http://www.w3.org/2000/svg">
<path d="M20.0002 15.5001C20.0002 14.8259 19.5504 14.2345 18.9006 14.0546C18.2517 13.8748 17.5626 14.1496 17.2153 14.7262L17.2146 14.7273V14.7273L17.2041 14.7444C17.1937 14.7611 17.1764 14.7886 17.1524 14.8261C17.1041 14.901 17.0289 15.015 16.9278 15.16C16.7253 15.4505 16.4217 15.8617 16.027 16.3281C15.2295 17.2706 14.1012 18.3902 12.7285 19.2139C12.0181 19.6401 11.7878 20.5615 12.214 21.2718C12.6402 21.9822 13.5616 22.2125 14.272 21.7863C15.3235 21.1554 16.2379 20.4061 17.0002 19.6724V32.5C17.0002 33.3284 17.6718 34 18.5002 34C19.3287 34 20.0002 33.3284 20.0002 32.5V15.5001ZM26.5607 24.4394C25.9749 23.8536 25.0251 23.8536 24.4393 24.4394C23.8536 25.0252 23.8536 25.9749 24.4393 26.5607L26.8787 29L24.4393 31.4393C23.8536 32.0251 23.8536 32.9749 24.4393 33.5607C25.0251 34.1464 25.9749 34.1464 26.5607 33.5607L29 31.1213L31.4393 33.5607C32.0251 34.1464 32.9749 34.1464 33.5607 33.5607C34.1464 32.9749 34.1464 32.0251 33.5607 31.4393L31.1213 29L33.5607 26.5607C34.1464 25.9749 34.1464 25.0252 33.5607 24.4394C32.9749 23.8536 32.0251 23.8536 31.4393 24.4394L29 26.8787L26.5607 24.4394Z" fill="#212121"/>
</svg>

<svg xmlns="http://www.w3.org/2000/svg" width="48" height="48"><path d="M20 15.5a1.5 1.5 0 0 0-2.785-.774v.001l-.01.017a8.112 8.112 0 0 1-.277.416c-.203.29-.506.702-.901 1.168-.798.943-1.926 2.062-3.299 2.886a1.5 1.5 0 1 0 1.544 2.572A15.395 15.395 0 0 0 17 19.672V32.5a1.5 1.5 0 0 0 3 0v-17Zm6.56 8.94a1.5 1.5 0 0 0-2.12 2.12L26.878 29l-2.44 2.44a1.5 1.5 0 0 0 2.122 2.12L29 31.122l2.44 2.44a1.5 1.5 0 0 0 2.12-2.122L31.122 29l2.44-2.44a1.5 1.5 0 0 0-2.122-2.12L29 26.878l-2.44-2.44Z"/></svg>
